src/assets/images/connectors/default.svg

<svg width="62" height="100" viewBox="0 0 62 100" fill="none" xmlns="http://www.w3.org/2000/svg">
<path d="M30.6845 0L30.0143 2.27869V68.4009L30.6845 69.0701L61.3692 50.9275L30.6845 0Z" fill="#343434"/>
<path d="M30.6847 0L0 50.9275L30.6847 69.0704V36.9766V0Z" fill="#8C8C8C"/>
<path d="M30.6845 74.8817L30.3068 75.3422V98.8964L30.6845 100L61.3874 56.7481L30.6845 74.8817Z" fill="#3C3C3B"/>
<path d="M30.6847 99.9997V74.8813L0 56.7478L30.6847 99.9997Z" fill="#8C8C8C"/>
<path d="M30.6845 69.07L61.3687 50.9276L30.6845 36.9768V69.07Z" fill="#141414"/>
<path d="M0.000213623 50.9277L30.6844 69.0701V36.9768L0.000213623 50.9277Z" fill="#393939"/>
</svg>

<svg xmlns="http://www.w3.org/2000/svg" width="62" height="100" fill="none"><path fill="#343434" d="m30.685 0-.67 2.279V68.4l.67.67 30.684-18.143z"/><path fill="#8C8C8C" d="M30.685 0 0 50.928 30.685 69.07V0"/><path fill="#3C3C3B" d="m30.685 74.882-.378.46v23.554l.378 1.104 30.702-43.252z"/><path fill="#8C8C8C" d="M30.685 100V74.88L0 56.748z"/><path fill="#141414" d="m30.685 69.07 30.684-18.142-30.684-13.951z"/><path fill="#393939" d="M0 50.928 30.684 69.07V36.977z"/></svg>
